libs/ui/packages/crypto-icons/src/svg/CELO.svg

<svg width="24" height="24" viewBox="0 0 24 24" fill="none" xmlns="http://www.w3.org/2000/svg">
<path d="M10.1053 19.1053C12.9834 19.1053 15.3158 16.7728 15.3158 13.8947C15.3158 11.0166 12.9834 8.68421 10.1053 8.68421C7.22716 8.68421 4.89474 11.0166 4.89474 13.8947C4.89474 16.7728 7.22716 19.1053 10.1053 19.1053ZM10.1053 21C6.18126 21 3 17.8187 3 13.8947C3 9.97074 6.18126 6.78947 10.1053 6.78947C14.0293 6.78947 17.2105 9.97074 17.2105 13.8947C17.2105 17.8187 14.0293 21 10.1053 21Z" fill="#42D689"/>
<path d="M13.8947 15.3158C16.7728 15.3158 19.1053 12.9834 19.1053 10.1053C19.1053 7.22716 16.7728 4.89474 13.8947 4.89474C11.0166 4.89474 8.68421 7.22716 8.68421 10.1053C8.68421 12.9834 11.0166 15.3158 13.8947 15.3158ZM13.8947 17.2105C9.97074 17.2105 6.78947 14.0293 6.78947 10.1053C6.78947 6.18126 9.97074 3 13.8947 3C17.8187 3 21 6.18126 21 10.1053C21 14.0293 17.8187 17.2105 13.8947 17.2105Z" fill="#42D689"/>
<path d="M14.1297 17.2105C14.6223 16.6137 14.9747 15.9145 15.1623 15.1623C15.9126 14.9747 16.6118 14.6223 17.2105 14.1297C17.184 14.9994 16.9964 15.8558 16.6573 16.6592C15.8558 16.9964 14.9994 17.184 14.1297 17.2105ZM8.83768 8.83768C8.08737 9.02526 7.38821 9.37768 6.78947 9.87032C6.816 9.00063 7.00358 8.14421 7.34274 7.34274C8.14421 7.00547 9.00253 6.81789 9.87032 6.78947C9.37768 7.38632 9.02526 8.08547 8.83768 8.83768Z" fill="#42D689"/>
</svg>

<svg xmlns="http://www.w3.org/2000/svg" width="24" height="24" viewBox="0 0 24 24" fill="none"><path fill="#42d689" d="M10.105 19.105a5.21 5.21 0 1 0 0-10.42 5.21 5.21 0 1 0 0 10.42m0 1.895a7.105 7.105 0 1 1 0-14.21 7.105 7.105 0 0 1 0 14.21"/><path fill="#42d689" d="M13.895 15.316a5.21 5.21 0 1 0 0-10.421 5.21 5.21 0 1 0 0 10.42m0 1.894a7.105 7.105 0 1 1 0-14.21 7.105 7.105 0 0 1 0 14.21"/><path fill="#42d689" d="M14.13 17.21a5.2 5.2 0 0 0 1.032-2.048c.75-.187 1.45-.54 2.048-1.032a7 7 0 0 1-.553 2.53 7.1 7.1 0 0 1-2.527.55M8.838 8.839a5.2 5.2 0 0 0-2.049 1.032c.027-.87.215-1.726.554-2.527A7.1 7.1 0 0 1 9.87 6.79a5.2 5.2 0 0 0-1.032 2.049"/></svg>
